X: 14336
T: Galloping Hogan
R: jig
M: 6/8
K: Gmajor
|:d/c/|BGA Bcd|cde d2 G|cec B/c/dB|cBc A2 d/c/|
BGA BB/c/d|efg d2 G|AA/B/c dgB|cAd G2:|
|:B/A/|GB/c/d gfg|e/f/ge dBG|def gba|fg^c d2 e/f/|
gc'/b/a gdB|cde d2 G|ABc dgB|cAD G2:|

